assets/images/elect_logo.svg

<svg fill="none" height="40" viewBox="0 0 125 40" width="125" xmlns="http://www.w3.org/2000/svg"><g fill="#000"><path d="m1.19342 23.6225v-4.8762h1.47102v-13.43667h-1.47102v-4.876213h20.02018v9.030013h-6.6375v-4.1538h-3.5879v4.73177h2.6192v3.3952h-2.6192v5.3097h3.5879v-4.7317h6.6375v9.6079z"/><path d="m23.7968 23.6225v-4.8762h1.471v-13.43667h-1.471v-4.876213h12.5216v4.876213h-2.7268v13.43667h2.655v-2.7451h5.8841v7.6213z"/><path d="m44.6422 23.6225v-4.8762h1.471v-13.43667h-1.471v-4.876213h20.0202v9.030013h-6.6375v-4.1538h-3.5879v4.73177h2.6192v3.3952h-2.6192v5.3097h3.5879v-4.7317h6.6375v9.6079z"/><path d="m70.1159 21.2025c-2.0092-1.9144-3.0496-4.9485-3.0496-9.1745 0-8.01867 3.8748-12.028 11.6246-12.028 1.8657 0 3.6237.21672 5.2382.686281 1.6146.469559 2.7986.975239 3.5879 1.517039v7.47686h-7.104v-2.13109c0-.75852-.1793-1.30032-.5023-1.66152-.3229-.3612-.8252-.5418-1.5069-.5418-.6816 0-1.1839.1806-1.5068.5418s-.5023.903-.5023 1.66152v8.99391c0 .7585.1794 1.3003.5023 1.6615s.8252.5418 1.5068.5418c.6817 0 1.184-.1806 1.5069-.5418.323-.3612.5023-.903.5023-1.6615v-2.4201h7.104v7.7297c-.8252.5418-2.0092 1.0475-3.5879 1.5171-1.5786.4695-3.3008.6863-5.1665.6863-3.7313 0-6.6016-.9753-8.6467-2.8535z"/><path d="m112.273 7.62136h-5.095v-2.31169h-1.901v13.43663h2.081v4.8763h-12.4501v-4.8763h2.081v-13.43663h-1.9016v2.31169h-5.0947v-7.224016h22.2804z"/><path d="m120.669 2.16718c.287 0 .538.07224.753.1806.215.14448.359.28896.467.5418.107.21672.179.50568.179.79464v.32508h-2.296c0 .39733.107.68629.287.86689.179.21672.43.28896.789.28896.215 0 .395-.03612.574-.07224s.323-.10836.502-.1806v.46956c-.179.07224-.358.14448-.502.1806-.179.03612-.359.07224-.61.07224-.323 0-.61-.07224-.861-.1806-.251-.14448-.43-.32508-.574-.57792-.143-.25284-.215-.57793-.215-.93913s.072-.68628.179-.93912c.108-.25284.287-.46956.538-.61404s.503-.21672.79-.21672zm0 .46956c-.251 0-.467.07224-.61.25284-.144.1806-.251.39732-.287.7224h1.722c0-.28896-.072-.50568-.215-.68628-.108-.1806-.323-.28896-.61-.28896z"/><path d="m120.633 8.0909c-2.225 0-4.019-1.80601-4.019-4.04545 0-2.23945 1.794-4.04545 4.019-4.04545 2.224 0 4.018 1.806 4.018 4.04545 0 2.23944-1.794 4.04545-4.018 4.04545zm0-7.476859c-1.902 0-3.409 1.553159-3.409 3.431409 0 1.87824 1.543 3.4314 3.409 3.4314 1.901 0 3.408-1.55316 3.408-3.4314 0-1.87825-1.507-3.431409-3.408-3.431409z"/><path d="m2.56957 39.8718v-.5827l-.38025-.0582c-.2535-.035-.41482-.1282-.41482-.5361v-5.5705c0-.4079.16132-.5011.41482-.5361l.38025-.0583v-.5827h-2.56957v.5827l.38025.0583c.2535.035.414818.1282.414818.5361v5.5705c0 .4079-.161318.5011-.414818.5361l-.38025.0582v.5827z"/><path d="m9.56467 32.5299.38025.0583c.36868.0583.41478.1282.41478.5361v4.9179l-3.60657-6.095h-1.7745v.5827l.36872.0699c.28807.0583.29959.1282.29959.5245v5.5705c0 .4079-.04609.4778-.41481.5361l-.38025.0582v.5827h2.51195v-.5827l-.38025-.0582c-.36873-.0583-.41482-.1282-.41482-.5361v-5.2559l3.80254 6.4329h.9103v-6.7475c0-.4079.046-.4778.4148-.5361l.3802-.0583v-.5827h-2.51193z"/><path d="m22.065 39.8718 2.2815-6.8058c.0922-.268.2305-.4079.4955-.4428l.4148-.0583v-.6177h-2.6387v.6177l.3227.0349c.2995.035.4378.1399.4378.3613 0 .0583-.0115.1632-.0461.2447l-1.9127 5.6288h-.1614l-1.7514-5.6521c-.0231-.0699-.0461-.1864-.0461-.2447 0-.1865.1498-.3263.4609-.3496l.2881-.0233v-.6177h-2.7309v.6177l.3802.0583c.2651.0466.4033.1398.4955.4195l2.2008 6.8291z"/><path d="m29.8031 40c1.544 0 3.0765-.7342 3.0765-3.03v-2.1093c0-2.2142-1.4403-3.0417-3.0765-3.0417-1.6132 0-3.042.8275-3.042 3.0417v2.1093c0 2.2958 1.521 3.03 3.042 3.03zm0-.874c-1.2214 0-2.0626-.606-2.0626-2.156v-2.1676c0-1.4217.8412-2.1093 2.0626-2.1093s2.0971.6642 2.0971 2.1093v2.1676c0 1.5733-.8757 2.156-2.0971 2.156z"/><path d="m38.8095 39.8718v-.5827l-.3802-.0582c-.2535-.035-.4148-.1282-.4148-.5361v-4.9179c0-.4196.0115-.7109.023-1.0139h1.1984c.2189 0 .3226.0932.3572.3729l.0576.4196h.6798v-1.6083h-5.6115v1.6083h.6798l.0576-.4196c.0346-.2797.1383-.3729.3572-.3729h1.1984c.0115.303.023.5943.023 1.0139v4.9179c0 .4079-.1613.5011-.4148.5361l-.3802.0582v.5827z"/><path d="m47.5681 39.8718v-1.6665h-.6684l-.0691.4895c-.0346.2447-.1498.3612-.5531.3612h-2.028c-.3341 0-.4148-.1165-.4148-.5593v-2.2259h2.6963v-.7575h-2.6963v-2.1909c0-.4429.0807-.5594.4148-.5594h1.9013c.4033 0 .5185.1165.553.3729l.0692.4778h.6683v-1.6665h-5.2659v.5827l.1959.0466c.2996.07.484.1515.484.5478v5.5705c0 .4079-.1614.4778-.4149.5361l-.265.0582v.5827z"/><path d="m56.9005 39.8718 1.4403-5.0577h.0807l1.4057 5.0577h1.4289l1.4979-7.1787.7836-.1865v-.5594h-2.5927v.5594l.8182.1865-1.1984 6.1182h-.0807l-1.6247-5.687h-.8872l-1.6132 5.687h-.0807l-1.302-6.1182.8642-.1865v-.5594h-2.6963v.5594l.772.1865 1.5555 7.1787z"/><path d="m70.5995 39.8718v-1.6665h-.6683l-.0691.4895c-.0346.2447-.1498.3612-.5531.3612h-2.028c-.3342 0-.4148-.1165-.4148-.5593v-2.2259h2.6963v-.7575h-2.6963v-2.1909c0-.4429.0806-.5594.4148-.5594h1.9013c.4033 0 .5185.1165.553.3729l.0692.4778h.6683v-1.6665h-5.2659v.5827l.1959.0466c.2996.07.484.1515.484.5478v5.5705c0 .4079-.1614.4778-.4149.5361l-.265.0582v.5827z"/><path d="m80.439 39.8718v-.5827l-.3803-.0582c-.2535-.035-.4148-.1282-.4148-.5361v-4.9179c0-.4196.0115-.7109.023-1.0139h1.1984c.2189 0 .3226.0932.3572.3729l.0576.4196h.6799v-1.6083h-5.6116v1.6083h.6798l.0577-.4196c.0345-.2797.1382-.3729.3572-.3729h1.1983c.0115.303.0231.5943.0231 1.0139v4.9179c0 .4079-.1614.5011-.4149.5361l-.3802.0582v.5827z"/><path d="m86.3629 39.8718v-.5827l-.4379-.0582c-.3341-.035-.4609-.1399-.4609-.5361v-1.9112h1.5095l1.3712 3.0882h1.5902v-.6176l-.4149-.0583c-.265-.035-.3917-.1049-.5185-.3496l-1.1292-2.2142c1.2329-.3963 1.6823-1.247 1.6823-2.2958 0-1.3985-.8527-2.3891-2.4659-2.3891h-3.2724v.6177l.4263.1282c.1729.0583.242.1398.242.4312v5.5705c0 .4079-.1383.5127-.3918.5477l-.3457.0466v.5827zm-.8988-6.7825c0-.1981.1037-.3263.3342-.3263h1.0601c1.0255 0 1.6477.5943 1.6477 1.5733 0 1.0721-.6452 1.6315-1.8897 1.6315h-1.1523z"/><path d="m95.5449 40c1.521 0 2.9498-.641 2.9498-2.9368v-3.9389c0-.4079.1613-.5011.4148-.5361l.3803-.0583v-.5827h-2.5696v.5827l.3803.0583c.2535.035.4148.1282.4148.5361v3.9156c0 1.3752-.6799 2.0861-1.9704 2.0861-1.279 0-1.9474-.7109-1.9474-2.0861v-3.9156c0-.4079.1614-.5011.4149-.5361l.3802-.0583v-.5827h-2.5695v.5827l.3802.0583c.2535.035.4148.1282.4148.5361v3.9389c0 2.2958 1.4173 2.9368 2.9268 2.9368z"/><path d="m103.905 39.9883c1.752 0 2.685-.8856 2.685-2.3307 0-1.6548-1.417-2.0045-2.616-2.3774-.898-.268-1.682-.5594-1.682-1.4217 0-.8974.795-1.1654 1.682-1.1654.415 0 1.107.1282 1.441.3496l.069 1.0022h.784s.092-.8391.092-1.6082c-.473-.268-1.233-.6177-2.42-.6177-1.417 0-2.627.5012-2.627 2.1676 0 1.3286 1.175 1.7481 2.304 2.1327 1.014.338 1.994.6643 1.994 1.6315 0 .8507-.703 1.3635-1.706 1.3635-.495 0-1.198-.1049-1.613-.3496l-.115-1.0139h-.784s-.103.5827-.103 1.6082c.461.2564 1.221.6293 2.615.6293z"/><path d="m112.472 39.8718v-.5827l-.381-.0582c-.253-.035-.414-.1282-.414-.5361v-4.9179c0-.4196.011-.7109.023-1.0139h1.198c.219 0 .323.0932.357.3729l.058.4196h.68v-1.6083h-5.612v1.6083h.68l.058-.4196c.034-.2797.138-.3729.357-.3729h1.198c.012.303.023.5943.023 1.0139v4.9179c0 .4079-.161.5011-.415.5361l-.38.0582v.5827z"/></g></svg>

<svg width="125" height="40" viewBox="0 0 125 40" fill="none" xmlns="http://www.w3.org/2000/svg"><path d="M1.19342 23.6225V18.7463H2.66444V5.30963H1.19342V0.433417H21.2136V9.46343H14.5761V5.30963H10.9882V10.0414H13.6074V13.4366H10.9882V18.7463H14.5761V14.0146H21.2136V23.6225H1.19342Z" fill="#000"/><path d="M23.7968 23.6225V18.7463H25.2678V5.30963H23.7968V0.433417H36.3184V5.30963H33.5916V18.7463H36.2466V16.0012H42.1307V23.6225H23.7968Z" fill="#000"/><path d="M44.6422 23.6225V18.7463H46.1132V5.30963H44.6422V0.433417H64.6624V9.46343H58.0249V5.30963H54.437V10.0414H57.0562V13.4366H54.437V18.7463H58.0249V14.0146H64.6624V23.6225H44.6422Z" fill="#000"/><path d="M70.1159 21.2025C68.1067 19.2881 67.0663 16.254 67.0663 12.028C67.0663 4.00933 70.9411 0 78.6909 0C80.5566 0 82.3146 0.21672 83.9291 0.686281C85.5437 1.15584 86.7277 1.66152 87.517 2.20332V9.68018H80.413V7.54909C80.413 6.79057 80.2337 6.24877 79.9107 5.88757C79.5878 5.52637 79.0855 5.34577 78.4038 5.34577C77.7222 5.34577 77.2199 5.52637 76.897 5.88757C76.5741 6.24877 76.3947 6.79057 76.3947 7.54909V16.543C76.3947 17.3015 76.5741 17.8433 76.897 18.2045C77.2199 18.5657 77.7222 18.7463 78.4038 18.7463C79.0855 18.7463 79.5878 18.5657 79.9107 18.2045C80.2337 17.8433 80.413 17.3015 80.413 16.543V14.1229H87.517V21.8526C86.6918 22.3944 85.5078 22.9001 83.9291 23.3697C82.3505 23.8392 80.6283 24.056 78.7626 24.056C75.0313 24.056 72.161 23.0807 70.1159 21.2025Z" fill="#000"/><path d="M112.273 7.62136H107.178V5.30967H105.277V18.7463H107.358V23.6226H94.9079V18.7463H96.9889V5.30967H95.0873V7.62136H89.9926V0.397344H112.273V7.62136Z" fill="#000"/><path d="M120.669 2.16718C120.956 2.16718 121.207 2.23942 121.422 2.34778C121.637 2.49226 121.781 2.63674 121.889 2.88958C121.996 3.1063 122.068 3.39526 122.068 3.68422V4.0093H119.772C119.772 4.40663 119.879 4.69559 120.059 4.87619C120.238 5.09291 120.489 5.16515 120.848 5.16515C121.063 5.16515 121.243 5.12903 121.422 5.09291C121.601 5.05679 121.745 4.98455 121.924 4.91231V5.38187C121.745 5.45411 121.566 5.52635 121.422 5.56247C121.243 5.59859 121.063 5.63471 120.812 5.63471C120.489 5.63471 120.202 5.56247 119.951 5.45411C119.7 5.30963 119.521 5.12903 119.377 4.87619C119.234 4.62335 119.162 4.29826 119.162 3.93706C119.162 3.57586 119.234 3.25078 119.341 2.99794C119.449 2.7451 119.628 2.52838 119.879 2.3839C120.13 2.23942 120.382 2.16718 120.669 2.16718ZM120.669 2.63674C120.418 2.63674 120.202 2.70898 120.059 2.88958C119.915 3.07018 119.808 3.2869 119.772 3.61198H121.494C121.494 3.32302 121.422 3.1063 121.279 2.9257C121.171 2.7451 120.956 2.63674 120.669 2.63674Z" fill="#000"/><path d="M120.633 8.0909C118.408 8.0909 116.614 6.28489 116.614 4.04545C116.614 1.806 118.408 0 120.633 0C122.857 0 124.651 1.806 124.651 4.04545C124.651 6.28489 122.857 8.0909 120.633 8.0909ZM120.633 0.614041C118.731 0.614041 117.224 2.1672 117.224 4.04545C117.224 5.92369 118.767 7.47685 120.633 7.47685C122.534 7.47685 124.041 5.92369 124.041 4.04545C124.041 2.1672 122.534 0.614041 120.633 0.614041Z" fill="#000"/><path d="M2.56957 39.8718V39.2891L2.18932 39.2309C1.93582 39.1959 1.7745 39.1027 1.7745 38.6948V33.1243C1.7745 32.7164 1.93582 32.6232 2.18932 32.5882L2.56957 32.5299V31.9472H0V32.5299L0.38025 32.5882C0.63375 32.6232 0.795068 32.7164 0.795068 33.1243V38.6948C0.795068 39.1027 0.63375 39.1959 0.38025 39.2309L0 39.2891V39.8718H2.56957Z" fill="#000"/><path d="M9.56467 32.5299L9.94492 32.5882C10.3136 32.6465 10.3597 32.7164 10.3597 33.1243V38.0422L6.75313 31.9472H4.97863V32.5299L5.34735 32.5998C5.63542 32.6581 5.64694 32.728 5.64694 33.1243V38.6948C5.64694 39.1027 5.60085 39.1726 5.23213 39.2309L4.85188 39.2891V39.8718H7.36383V39.2891L6.98358 39.2309C6.61485 39.1726 6.56876 39.1027 6.56876 38.6948V33.4389L10.3713 39.8718H11.2816V33.1243C11.2816 32.7164 11.3276 32.6465 11.6964 32.5882L12.0766 32.5299V31.9472H9.56467V32.5299Z" fill="#000"/><path d="M22.065 39.8718L24.3465 33.066C24.4387 32.798 24.577 32.6581 24.842 32.6232L25.2568 32.5649V31.9472H22.6181V32.5649L22.9408 32.5998C23.2403 32.6348 23.3786 32.7397 23.3786 32.9611C23.3786 33.0194 23.3671 33.1243 23.3325 33.2058L21.4198 38.8346H21.2584L19.507 33.1825C19.4839 33.1126 19.4609 32.9961 19.4609 32.9378C19.4609 32.7513 19.6107 32.6115 19.9218 32.5882L20.2099 32.5649V31.9472H17.479V32.5649L17.8592 32.6232C18.1243 32.6698 18.2625 32.763 18.3547 33.0427L20.5555 39.8718H22.065Z" fill="#000"/><path d="M29.8031 40C31.3471 40 32.8796 39.2658 32.8796 36.97V34.8607C32.8796 32.6465 31.4393 31.819 29.8031 31.819C28.1899 31.819 26.7611 32.6465 26.7611 34.8607V36.97C26.7611 39.2658 28.2821 40 29.8031 40ZM29.8031 39.126C28.5817 39.126 27.7405 38.52 27.7405 36.97V34.8024C27.7405 33.3807 28.5817 32.6931 29.8031 32.6931C31.0245 32.6931 31.9002 33.3573 31.9002 34.8024V36.97C31.9002 38.5433 31.0245 39.126 29.8031 39.126Z" fill="#000"/><path d="M38.8095 39.8718V39.2891L38.4293 39.2309C38.1758 39.1959 38.0145 39.1027 38.0145 38.6948V33.7769C38.0145 33.3573 38.026 33.066 38.0375 32.763H39.2359C39.4548 32.763 39.5585 32.8562 39.5931 33.1359L39.6507 33.5555H40.3305V31.9472H34.719V33.5555H35.3988L35.4564 33.1359C35.491 32.8562 35.5947 32.763 35.8136 32.763H37.012C37.0235 33.066 37.035 33.3573 37.035 33.7769V38.6948C37.035 39.1027 36.8737 39.1959 36.6202 39.2309L36.24 39.2891V39.8718H38.8095Z" fill="#000"/><path d="M47.5681 39.8718V38.2053H46.8997L46.8306 38.6948C46.796 38.9395 46.6808 39.056 46.2775 39.056H44.2495C43.9154 39.056 43.8347 38.9395 43.8347 38.4967V36.2708H46.531V35.5133H43.8347V33.3224C43.8347 32.8795 43.9154 32.763 44.2495 32.763H46.1508C46.5541 32.763 46.6693 32.8795 46.7038 33.1359L46.773 33.6137H47.4413V31.9472H42.1754V32.5299L42.3713 32.5765C42.6709 32.6465 42.8553 32.728 42.8553 33.1243V38.6948C42.8553 39.1027 42.6939 39.1726 42.4404 39.2309L42.1754 39.2891V39.8718H47.5681Z" fill="#000"/><path d="M56.9005 39.8718L58.3408 34.8141H58.4215L59.8272 39.8718H61.2561L62.754 32.6931L63.5376 32.5066V31.9472H60.9449V32.5066L61.7631 32.6931L60.5647 38.8113H60.484L58.8593 33.1243H57.9721L56.3589 38.8113H56.2782L54.9762 32.6931L55.8404 32.5066V31.9472H53.1441V32.5066L53.9161 32.6931L55.4716 39.8718H56.9005Z" fill="#000"/><path d="M70.5995 39.8718V38.2053H69.9312L69.8621 38.6948C69.8275 38.9395 69.7123 39.056 69.309 39.056H67.281C66.9468 39.056 66.8662 38.9395 66.8662 38.4967V36.2708H69.5625V35.5133H66.8662V33.3224C66.8662 32.8795 66.9468 32.763 67.281 32.763H69.1823C69.5856 32.763 69.7008 32.8795 69.7353 33.1359L69.8045 33.6137H70.4728V31.9472H65.2069V32.5299L65.4028 32.5765C65.7024 32.6465 65.8868 32.728 65.8868 33.1243V38.6948C65.8868 39.1027 65.7254 39.1726 65.4719 39.2309L65.2069 39.2891V39.8718H70.5995Z" fill="#000"/><path d="M80.439 39.8718V39.2891L80.0587 39.2309C79.8052 39.1959 79.6439 39.1027 79.6439 38.6948V33.7769C79.6439 33.3573 79.6554 33.066 79.6669 32.763H80.8653C81.0842 32.763 81.1879 32.8562 81.2225 33.1359L81.2801 33.5555H81.96V31.9472H76.3484V33.5555H77.0282L77.0859 33.1359C77.1204 32.8562 77.2241 32.763 77.4431 32.763H78.6414C78.6529 33.066 78.6645 33.3573 78.6645 33.7769V38.6948C78.6645 39.1027 78.5031 39.1959 78.2496 39.2309L77.8694 39.2891V39.8718H80.439Z" fill="#000"/><path d="M86.3629 39.8718V39.2891L85.925 39.2309C85.5909 39.1959 85.4641 39.091 85.4641 38.6948V36.7836H86.9736L88.3448 39.8718H89.935V39.2542L89.5201 39.1959C89.2551 39.1609 89.1284 39.091 89.0016 38.8463L87.8724 36.6321C89.1053 36.2358 89.5547 35.3851 89.5547 34.3363C89.5547 32.9378 88.702 31.9472 87.0888 31.9472H83.8164V32.5649L84.2427 32.6931C84.4156 32.7514 84.4847 32.8329 84.4847 33.1243V38.6948C84.4847 39.1027 84.3464 39.2075 84.0929 39.2425L83.7472 39.2891V39.8718H86.3629ZM85.4641 33.0893C85.4641 32.8912 85.5678 32.763 85.7983 32.763H86.8584C87.8839 32.763 88.5061 33.3573 88.5061 34.3363C88.5061 35.4084 87.8609 35.9678 86.6164 35.9678H85.4641V33.0893Z" fill="#000"/><path d="M95.5449 40C97.0659 40 98.4947 39.359 98.4947 37.0632V33.1243C98.4947 32.7164 98.656 32.6232 98.9095 32.5882L99.2898 32.5299V31.9472H96.7202V32.5299L97.1005 32.5882C97.354 32.6232 97.5153 32.7164 97.5153 33.1243V37.0399C97.5153 38.4151 96.8354 39.126 95.5449 39.126C94.2659 39.126 93.5975 38.4151 93.5975 37.0399V33.1243C93.5975 32.7164 93.7589 32.6232 94.0124 32.5882L94.3926 32.5299V31.9472H91.8231V32.5299L92.2033 32.5882C92.4568 32.6232 92.6181 32.7164 92.6181 33.1243V37.0632C92.6181 39.359 94.0354 40 95.5449 40Z" fill="#000"/><path d="M103.905 39.9883C105.657 39.9883 106.59 39.1027 106.59 37.6576C106.59 36.0028 105.173 35.6531 103.974 35.2802C103.076 35.0122 102.292 34.7208 102.292 33.8585C102.292 32.9611 103.087 32.6931 103.974 32.6931C104.389 32.6931 105.081 32.8213 105.415 33.0427L105.484 34.0449H106.268C106.268 34.0449 106.36 33.2058 106.36 32.4367C105.887 32.1687 105.127 31.819 103.94 31.819C102.523 31.819 101.313 32.3202 101.313 33.9866C101.313 35.3152 102.488 35.7347 103.617 36.1193C104.631 36.4573 105.611 36.7836 105.611 37.7508C105.611 38.6015 104.908 39.1143 103.905 39.1143C103.41 39.1143 102.707 39.0094 102.292 38.7647L102.177 37.7508H101.393C101.393 37.7508 101.29 38.3335 101.29 39.359C101.751 39.6154 102.511 39.9883 103.905 39.9883Z" fill="#000"/><path d="M112.472 39.8718V39.2891L112.091 39.2309C111.838 39.1959 111.677 39.1027 111.677 38.6948V33.7769C111.677 33.3573 111.688 33.066 111.7 32.763H112.898C113.117 32.763 113.221 32.8562 113.255 33.1359L113.313 33.5555H113.993V31.9472H108.381V33.5555H109.061L109.119 33.1359C109.153 32.8562 109.257 32.763 109.476 32.763H110.674C110.686 33.066 110.697 33.3573 110.697 33.7769V38.6948C110.697 39.1027 110.536 39.1959 110.282 39.2309L109.902 39.2891V39.8718H112.472Z" fill="#000"/></svg>
